src/icons/link.svg

<svg width="64" height="64" viewBox="0 0 64 64" fill="none" xmlns="http://www.w3.org/2000/svg">
<path d="M57.5889 31.8012H53.0688C52.1327 31.8012 51.3737 32.5601 51.3737 33.4963V54.1049C51.3737 55.1988 50.4835 56.0888 49.3896 56.0888H9.89343C8.79979 56.0888 7.91021 55.1988 7.91021 54.1049V14.6093C7.91021 13.5153 8.79979 12.6251 9.89343 12.6251H31.5572C32.4933 12.6251 33.2523 11.8661 33.2523 10.93V6.4099C33.2523 5.47378 32.4933 4.71484 31.5572 4.71484H9.89343C4.43808 4.71484 0 9.1536 0 14.6093V54.1051C0 59.5609 4.43831 63.9992 9.89343 63.9992H49.3893C54.8452 63.9992 59.2837 59.5607 59.2837 54.1051V33.4965C59.2839 32.5601 58.5249 31.8012 57.5889 31.8012Z" fill="#F7C003"/>
<path d="M62.3043 0H44.3248C43.3888 0 42.6299 0.758929 42.6299 1.69505V6.21517C42.6299 7.15129 43.3888 7.91021 44.3248 7.91021H50.4958L27.2748 31.1308C26.6128 31.7928 26.6128 32.8659 27.2748 33.528L30.471 36.7244C30.789 37.0424 31.2199 37.2209 31.6696 37.2209C32.1192 37.2209 32.5504 37.0424 32.8682 36.7244L56.0892 13.5035V19.6741C56.0892 20.6101 56.8482 21.3691 57.7842 21.3691H62.3043C63.2404 21.3691 63.9994 20.6101 63.9994 19.6741V1.69505C63.9994 0.758929 63.2404 0 62.3043 0Z" fill="#F7C003"/>
</svg>

<svg xmlns="http://www.w3.org/2000/svg" fill="none" viewBox="0 0 64 64"><defs/><path fill="#F7C003" d="M57.59 31.8h-4.52c-.94 0-1.7.76-1.7 1.7v20.6c0 1.1-.89 1.99-1.98 1.99H9.89c-1.09 0-1.98-.9-1.98-1.99V14.6c0-1.08.89-1.97 1.98-1.97h21.67c.93 0 1.7-.76 1.7-1.7V6.41c0-.94-.77-1.7-1.7-1.7H9.89A9.9 9.9 0 000 14.61v39.5A9.9 9.9 0 009.9 64h39.49a9.9 9.9 0 009.9-9.9V33.5c0-.94-.77-1.7-1.7-1.7z"/><path fill="#F7C003" d="M62.3 0H44.32c-.93 0-1.69.76-1.69 1.7v4.52c0 .93.76 1.69 1.7 1.69h6.17L27.27 31.13a1.7 1.7 0 000 2.4l3.2 3.2a1.7 1.7 0 002.4 0L56.09 13.5v6.17c0 .94.76 1.7 1.7 1.7h4.51c.94 0 1.7-.76 1.7-1.7V1.7c0-.94-.76-1.7-1.7-1.7z"/></svg>
